X: 36
T:Jack Broke Da Prison Door
M:4/4
L:1/8
Q:180
K:G
D-|"G"G2 BG BdBG|"C"cBAB "D"dBAB|"G"G2 BG BdBG|"C"ABAG "D"E2 D::!
D-|"G"[B2g2] gd edBG-|g2 gd "C"ea-"F"af-|"G"g2 g-d edBG|"C"ABAG "D"E2 D:
|
